content/assets/close.svg

<svg fill="none" height="70" viewBox="0 0 60 70" width="60" xmlns="http://www.w3.org/2000/svg"><g clip-rule="evenodd" fill="#fff" fill-rule="evenodd"><path d="m29.8556 29.085-18.2986-18.4433 18.5393-10.64172289 18.2986 10.64172289zm13.8337-17.8376-13.8204 13.7489-13.6128-13.7205 13.8308-7.939z"/><path d="m29.8556 40.0642 18.7801 18.3464-18.5394 10.7387-18.5393-10.7387zm-13.6014 17.7283 13.6278-13.6635 14.0124 13.689-13.7981 7.9923z"/><path d="m35.3451 34.5746 19.9358-20.0321 4.7191 2.793v34.5265l-4.6228 2.6484zm20.5081 16.3333 1.2576-.7205v-31.2046l-1.3673-.8092-16.3124 16.3912z"/><path d="m24.366 34.5746-19.93581-19.7913-4.43017474 2.5522v34.5265l4.57463474 2.6484zm-21.47674-15.5692 1.07126-.6171 16.31948 16.2012-16.18599 16.3041-1.20475-.6974z"/></g></svg>

<svg width="60" height="70" viewBox="0 0 60 70" fill="none" xmlns="http://www.w3.org/2000/svg">
<path fill-rule="evenodd" clip-rule="evenodd" d="M29.8556 29.085L11.557 10.6417L30.0963 -2.28882e-05L48.3949 10.6417L29.8556 29.085ZM43.6893 11.2474L29.8689 24.9963L16.2561 11.2758L30.0869 3.3368L43.6893 11.2474Z" fill="white"/>
<path fill-rule="evenodd" clip-rule="evenodd" d="M29.8556 40.0642L48.6357 58.4106L30.0963 69.1493L11.557 58.4106L29.8556 40.0642ZM16.2542 57.7925L29.882 44.129L43.8944 57.818L30.0963 65.8103L16.2542 57.7925Z" fill="white"/>
<path fill-rule="evenodd" clip-rule="evenodd" d="M35.3451 34.5746L55.2809 14.5425L60 17.3355V51.862L55.3772 54.5104L35.3451 34.5746ZM55.8532 50.9079L57.1108 50.1874V18.9828L55.7435 18.1736L39.4311 34.5648L55.8532 50.9079Z" fill="white"/>
<path fill-rule="evenodd" clip-rule="evenodd" d="M24.366 34.5746L4.43019 14.7833L1.52588e-05 17.3355V51.862L4.57465 54.5104L24.366 34.5746ZM2.88926 19.0054L3.96052 18.3883L20.28 34.5895L4.09401 50.8936L2.88926 50.1962L2.88926 19.0054Z" fill="white"/>
</svg>
